src/public/images/time.svg

<svg width="151" height="304" viewBox="0 0 151 304" fill="none" xmlns="http://www.w3.org/2000/svg">
<path d="M76.0001 303.207L78.8869 298.207H73.1133L76.0001 303.207ZM76.0001 277.667C77.4729 277.667 78.6668 276.473 78.6668 275C78.6668 273.527 77.4729 272.333 76.0001 272.333C74.5273 272.333 73.3334 273.527 73.3334 275C73.3334 276.473 74.5273 277.667 76.0001 277.667ZM76.0001 298.707H76.5001V275H76.0001H75.5001V298.707H76.0001Z" fill="url(#paint0_linear_4192_5731)"/>
<path fill-rule="evenodd" clip-rule="evenodd" d="M68.0524 108.83C72.2869 106.39 79.1524 106.39 83.387 108.83L137.014 139.736C138.543 140.617 139.494 142.238 139.517 144.001L140.464 214.961C140.464 219.842 137.031 225.777 132.796 228.218L77.2323 259.8C75.691 260.676 73.801 260.67 72.2649 259.785L18.6672 228.896C14.4328 226.456 11 220.521 11 215.64L11.0016 145.513C11.0017 143.747 11.9327 142.113 13.4511 141.212L68.0524 108.83ZM81.8535 109.714L135.481 140.62C137.009 141.5 137.96 143.121 137.984 144.885L138.93 215.845L138.923 216.214C138.758 220.044 136.078 224.559 132.796 226.45L77.2323 258.032C75.691 258.908 73.801 258.903 72.2649 258.018L18.6672 227.129C15.3856 225.238 12.7054 220.723 12.5409 216.893L12.5335 216.524V146.397C12.5335 144.631 13.4645 142.997 14.983 142.096L69.5859 109.714L69.9093 109.536C73.3145 107.763 78.5717 107.823 81.8535 109.714Z" fill="url(#paint1_linear_4192_5731)"/>
<path d="M137.986 144.885C137.962 143.121 137.011 141.5 135.483 140.62L81.8552 109.714C78.5734 107.823 73.3162 107.763 69.911 109.536L69.5876 109.714L14.9847 142.096C13.4662 142.997 12.5352 144.631 12.5352 146.397V216.524L12.5426 216.893C12.7071 220.723 15.3873 225.238 18.6689 227.129L72.2666 258.018C73.8027 258.903 75.6927 258.908 77.234 258.032L132.798 226.45C136.08 224.559 138.76 220.044 138.925 216.214L138.932 215.845L137.986 144.885Z" fill="#F9F9F9"/>
<path d="M76.04 225.08C68.2861 225.08 62 218.794 62 211.04C62 203.286 68.2861 197 76.04 197C83.7939 197 90.08 203.286 90.08 211.04C90.08 218.794 83.7939 225.08 76.04 225.08ZM77.3164 202.744H74.7636V211.568L79.8691 216.674L81.6739 214.869L77.3164 210.512V202.744Z" fill="#389D2D"/>
<path d="M139.113 213.972V196.837" stroke="url(#paint2_radial_4192_5731)"/>
<path d="M12.1133 213.972V196.837" stroke="url(#paint3_radial_4192_5731)"/>
<path d="M12.1641 154V200.645" stroke="url(#paint4_radial_4192_5731)"/>
<path d="M11.9799 201.277C15.8347 201.277 18.9597 198.152 18.9597 194.297C18.9597 190.442 15.8347 187.317 11.9799 187.317C8.12499 187.317 5 190.442 5 194.297C5 198.152 8.12499 201.277 11.9799 201.277Z" fill="#ACD4A7"/>
<path d="M11.9809 198.486C14.2938 198.486 16.1688 196.611 16.1688 194.298C16.1688 191.985 14.2938 190.11 11.9809 190.11C9.66796 190.11 7.79297 191.985 7.79297 194.298C7.79297 196.611 9.66796 198.486 11.9809 198.486Z" fill="#389D2D"/>
<path d="M139.164 154V200.645" stroke="url(#paint5_radial_4192_5731)"/>
<path d="M138.98 201.277C142.835 201.277 145.96 198.152 145.96 194.297C145.96 190.442 142.835 187.317 138.98 187.317C135.125 187.317 132 190.442 132 194.297C132 198.152 135.125 201.277 138.98 201.277Z" fill="#ACD4A7"/>
<path d="M138.981 198.486C141.294 198.486 143.169 196.611 143.169 194.298C143.169 191.985 141.294 190.11 138.981 190.11C136.668 190.11 134.793 191.985 134.793 194.298C134.793 196.611 136.668 198.486 138.981 198.486Z" fill="#389D2D"/>
<path d="M72.595 117.138L24.7643 144.753C22.612 145.996 22.612 148.01 24.7643 149.253L71.1211 176.017C73.2734 177.26 76.763 177.26 78.9153 176.017L126.746 148.402C128.898 147.159 128.898 145.145 126.746 143.902L80.3893 117.138C78.2369 115.895 74.7474 115.895 72.595 117.138Z" stroke="#DDDDDD"/>
<path d="M72.3179 3.88917L3.88901 72.318C2.13165 74.0754 2.13165 76.9246 3.88901 78.682L72.3179 147.111C74.0752 148.868 76.9245 148.868 78.6818 147.111L147.111 78.682C148.868 76.9246 148.868 74.0754 147.111 72.318L78.6818 3.88917C76.9245 2.13181 74.0752 2.13181 72.3179 3.88917Z" fill="url(#paint6_linear_4192_5731)" stroke="url(#paint7_linear_4192_5731)"/>
<path d="M52.868 80.99C52.7506 80.99 52.66 80.958 52.596 80.894C52.532 80.8194 52.5 80.7287 52.5 80.622V70.174C52.5 70.0567 52.532 69.966 52.596 69.902C52.66 69.8274 52.7506 69.79 52.868 69.79H57.252C58.052 69.79 58.7026 69.9234 59.204 70.19C59.716 70.446 60.0893 70.798 60.324 71.246C60.5693 71.694 60.692 72.1954 60.692 72.75C60.692 73.1874 60.6173 73.566 60.468 73.886C60.3293 74.1954 60.1533 74.4514 59.94 74.654C59.7266 74.846 59.5186 74.9954 59.316 75.102C59.732 75.3047 60.1 75.6354 60.42 76.094C60.7506 76.5527 60.916 77.1074 60.916 77.758C60.916 78.3447 60.7826 78.8834 60.516 79.374C60.2493 79.8647 59.8493 80.2594 59.316 80.558C58.7933 80.846 58.1426 80.99 57.364 80.99H52.868ZM54.068 79.694H57.156C57.8493 79.694 58.3826 79.5074 58.756 79.134C59.1293 78.7607 59.316 78.302 59.316 77.758C59.316 77.1927 59.1293 76.7287 58.756 76.366C58.3826 75.9927 57.8493 75.806 57.156 75.806H54.068V79.694ZM54.068 74.526H57.012C57.6946 74.526 58.212 74.3714 58.564 74.062C58.916 73.742 59.092 73.31 59.092 72.766C59.092 72.222 58.916 71.806 58.564 71.518C58.212 71.23 57.6946 71.086 57.012 71.086H54.068V74.526ZM63.3635 84.03C63.2568 84.03 63.1661 83.9927 63.0915 83.918C63.0275 83.854 62.9955 83.7687 62.9955 83.662V73.038C62.9955 72.9314 63.0275 72.846 63.0915 72.782C63.1661 72.7074 63.2568 72.67 63.3635 72.67H64.0995C64.2061 72.67 64.2915 72.7074 64.3555 72.782C64.4301 72.846 64.4675 72.9314 64.4675 73.038V73.742C64.7235 73.39 65.0648 73.0967 65.4915 72.862C65.9181 72.6274 66.4515 72.51 67.0915 72.51C67.6888 72.51 68.1955 72.6114 68.6115 72.814C69.0381 73.0167 69.3848 73.294 69.6515 73.646C69.9288 73.998 70.1368 74.398 70.2755 74.846C70.4141 75.294 70.4888 75.774 70.4995 76.286C70.5101 76.4567 70.5155 76.638 70.5155 76.83C70.5155 77.022 70.5101 77.2034 70.4995 77.374C70.4888 77.8754 70.4141 78.3554 70.2755 78.814C70.1368 79.262 69.9288 79.662 69.6515 80.014C69.3848 80.3554 69.0381 80.6327 68.6115 80.846C68.1955 81.0487 67.6888 81.15 67.0915 81.15C66.4728 81.15 65.9501 81.038 65.5235 80.814C65.1075 80.5794 64.7661 80.2914 64.4995 79.95V83.662C64.4995 83.7687 64.4675 83.854 64.4035 83.918C64.3395 83.9927 64.2488 84.03 64.1315 84.03H63.3635ZM66.7555 79.854C67.3101 79.854 67.7421 79.7367 68.0515 79.502C68.3715 79.2567 68.6008 78.942 68.7395 78.558C68.8781 78.1634 68.9581 77.742 68.9795 77.294C68.9901 76.9847 68.9901 76.6754 68.9795 76.366C68.9581 75.918 68.8781 75.502 68.7395 75.118C68.6008 74.7234 68.3715 74.4087 68.0515 74.174C67.7421 73.9287 67.3101 73.806 66.7555 73.806C66.2328 73.806 65.8061 73.9287 65.4755 74.174C65.1555 74.4194 64.9155 74.734 64.7555 75.118C64.6061 75.4914 64.5208 75.8754 64.4995 76.27C64.4888 76.4407 64.4835 76.6434 64.4835 76.878C64.4835 77.1127 64.4888 77.3207 64.4995 77.502C64.5101 77.8754 64.5955 78.2434 64.7555 78.606C64.9261 78.9687 65.1768 79.2674 65.5075 79.502C65.8381 79.7367 66.2541 79.854 66.7555 79.854ZM75.8227 81.15C74.7241 81.15 73.8494 80.814 73.1987 80.142C72.5481 79.4594 72.1907 78.5314 72.1267 77.358C72.1161 77.2194 72.1107 77.0434 72.1107 76.83C72.1107 76.606 72.1161 76.4247 72.1267 76.286C72.1694 75.5287 72.3454 74.8674 72.6547 74.302C72.9641 73.726 73.3854 73.2834 73.9187 72.974C74.4627 72.6647 75.0974 72.51 75.8227 72.51C76.6334 72.51 77.3107 72.6807 77.8547 73.022C78.4094 73.3634 78.8307 73.8487 79.1187 74.478C79.4067 75.1074 79.5507 75.8434 79.5507 76.686V76.958C79.5507 77.0754 79.5134 77.166 79.4387 77.23C79.3747 77.294 79.2894 77.326 79.1827 77.326H73.6467C73.6467 77.3367 73.6467 77.358 73.6467 77.39C73.6467 77.422 73.6467 77.4487 73.6467 77.47C73.6681 77.9074 73.7641 78.318 73.9347 78.702C74.1054 79.0754 74.3507 79.3794 74.6707 79.614C74.9907 79.8487 75.3747 79.966 75.8227 79.966C76.2067 79.966 76.5267 79.9074 76.7827 79.79C77.0387 79.6727 77.2467 79.5447 77.4067 79.406C77.5667 79.2567 77.6734 79.1447 77.7267 79.07C77.8227 78.9314 77.8974 78.8514 77.9507 78.83C78.0041 78.798 78.0894 78.782 78.2067 78.782H78.9747C79.0814 78.782 79.1667 78.814 79.2307 78.878C79.3054 78.9314 79.3374 79.0114 79.3267 79.118C79.3161 79.278 79.2307 79.4754 79.0707 79.71C78.9107 79.934 78.6814 80.158 78.3827 80.382C78.0841 80.606 77.7214 80.7927 77.2947 80.942C76.8681 81.0807 76.3774 81.15 75.8227 81.15ZM73.6467 76.222H78.0307V76.174C78.0307 75.694 77.9401 75.2674 77.7587 74.894C77.5881 74.5207 77.3374 74.2274 77.0067 74.014C76.6761 73.79 76.2814 73.678 75.8227 73.678C75.3641 73.678 74.9694 73.79 74.6387 74.014C74.3187 74.2274 74.0734 74.5207 73.9027 74.894C73.7321 75.2674 73.6467 75.694 73.6467 76.174V76.222ZM81.8159 80.99C81.7092 80.99 81.6239 80.958 81.5599 80.894C81.4959 80.83 81.4639 80.7447 81.4639 80.638V72.974C81.4639 72.8887 81.4959 72.8194 81.5599 72.766C81.6345 72.702 81.7092 72.67 81.7839 72.67H82.5999C82.7705 72.67 82.9039 72.7554 82.9999 72.926L85.7199 78.014L88.4559 72.926C88.5519 72.7554 88.6852 72.67 88.8559 72.67H89.6559C89.7412 72.67 89.8159 72.702 89.8799 72.766C89.9439 72.8194 89.9759 72.8887 89.9759 72.974V80.638C89.9759 80.7447 89.9439 80.83 89.8799 80.894C89.8159 80.958 89.7359 80.99 89.6399 80.99H88.8559C88.7492 80.99 88.6639 80.958 88.5999 80.894C88.5359 80.83 88.5038 80.7447 88.5038 80.638V74.254L89.0639 74.318L86.4559 79.246C86.4025 79.3527 86.3385 79.4487 86.2639 79.534C86.1892 79.6194 86.0772 79.662 85.9279 79.662H85.5119C85.3732 79.662 85.2665 79.6194 85.1919 79.534C85.1172 79.4487 85.0479 79.3527 84.9838 79.246L82.4559 74.558L82.9519 74.51V80.638C82.9519 80.7447 82.9199 80.83 82.8559 80.894C82.7919 80.958 82.7065 80.99 82.5999 80.99H81.8159ZM97.5541 80.99C97.4368 80.99 97.3461 80.958 97.2821 80.894C97.2181 80.8194 97.1861 80.7287 97.1861 80.622V78.014H95.3461V77.934C94.3434 77.934 93.5968 77.6887 93.1061 77.198C92.6261 76.6967 92.3861 76.062 92.3861 75.294C92.3861 74.398 92.6474 73.7367 93.1701 73.31C93.7034 72.8834 94.5034 72.67 95.5701 72.67H98.3221C98.4288 72.67 98.5141 72.7074 98.5781 72.782C98.6528 72.846 98.6901 72.9314 98.6901 73.038V80.622C98.6901 80.7287 98.6528 80.8194 98.5781 80.894C98.5141 80.958 98.4288 80.99 98.3221 80.99H97.5541ZM92.4821 80.99C92.3861 80.99 92.3061 80.958 92.2421 80.894C92.1781 80.83 92.1461 80.7554 92.1461 80.67C92.1461 80.6274 92.1514 80.5847 92.1621 80.542C92.1834 80.4887 92.2154 80.4354 92.2581 80.382L94.1621 77.566L95.6981 77.678L93.6661 80.75C93.6234 80.8034 93.5648 80.8567 93.4901 80.91C93.4154 80.9634 93.3354 80.99 93.2501 80.99H92.4821ZM95.3941 76.814H97.2021V73.87H95.5221C94.9248 73.87 94.4821 73.9767 94.1941 74.19C93.9168 74.3927 93.7781 74.7607 93.7781 75.294C93.7781 75.7314 93.9061 76.094 94.1621 76.382C94.4288 76.67 94.8394 76.814 95.3941 76.814Z" fill="white"/>
<path d="M72.9799 13.4351L12.4984 73.9167C10.741 75.674 10.741 78.5233 12.4984 80.2806L71.6554 139.438C73.4127 141.195 76.262 141.195 78.0193 139.438L138.501 78.9561C140.258 77.1987 140.258 74.3495 138.501 72.5921L79.3439 13.4351C77.5865 11.6778 74.7373 11.6778 72.9799 13.4351Z" stroke="#A7A7A7" stroke-opacity="0.3"/>
<defs>
<linearGradient id="paint0_linear_4192_5731" x1="76.5001" y1="303.207" x2="76.5001" y2="275" gradientUnits="userSpaceOnUse">
<stop stop-color="#4C4C4C"/>
<stop offset="1" stop-color="#878787"/>
</linearGradient>
<linearGradient id="paint1_linear_4192_5731" x1="2.35065" y1="184.405" x2="172.336" y2="184.405" gradientUnits="userSpaceOnUse">
<stop stop-color="#737373" stop-opacity="0.11"/>
<stop offset="1" stop-color="#D9D9D9" stop-opacity="0.2"/>
</linearGradient>
<radialGradient id="paint2_radial_4192_5731" cx="0" cy="0" r="1" gradientUnits="userSpaceOnUse" gradientTransform="translate(nan nan) rotate(nan) scale(nan nan)">
<stop stop-color="#389D2D" stop-opacity="0"/>
<stop offset="1" stop-color="#389D2D"/>
</radialGradient>
<radialGradient id="paint3_radial_4192_5731" cx="0" cy="0" r="1" gradientUnits="userSpaceOnUse" gradientTransform="translate(nan nan) rotate(nan) scale(nan nan)">
<stop stop-color="#389D2D" stop-opacity="0"/>
<stop offset="1" stop-color="#389D2D"/>
</radialGradient>
<radialGradient id="paint4_radial_4192_5731" cx="0" cy="0" r="1" gradientUnits="userSpaceOnUse" gradientTransform="translate(nan nan) rotate(nan) scale(nan nan)">
<stop stop-color="#389D2D" stop-opacity="0"/>
<stop offset="1" stop-color="#389D2D"/>
</radialGradient>
<radialGradient id="paint5_radial_4192_5731" cx="0" cy="0" r="1" gradientUnits="userSpaceOnUse" gradientTransform="translate(nan nan) rotate(nan) scale(nan nan)">
<stop stop-color="#389D2D" stop-opacity="0"/>
<stop offset="1" stop-color="#389D2D"/>
</radialGradient>
<linearGradient id="paint6_linear_4192_5731" x1="37.9571" y1="38.25" x2="113.457" y2="113.75" gradientUnits="userSpaceOnUse">
<stop/>
<stop offset="1" stop-color="#666666"/>
</linearGradient>
<linearGradient id="paint7_linear_4192_5731" x1="37.9571" y1="38.25" x2="113.457" y2="113.75" gradientUnits="userSpaceOnUse">
<stop/>
<stop offset="1" stop-color="#666666"/>
</linearGradient>
</defs>
</svg>

<svg width="151" height="304" fill="none" xmlns="http://www.w3.org/2000/svg"><path d="m76 303.207 2.887-5h-5.774l2.887 5zm0-25.54a2.667 2.667 0 1 0 0-5.334 2.667 2.667 0 0 0 0 5.334zm0 21.04h.5V275h-1v23.707h.5z" fill="url(#a)"/><path fill-rule="evenodd" clip-rule="evenodd" d="M68.052 108.83c4.235-2.44 11.1-2.44 15.335 0l53.627 30.906a4.998 4.998 0 0 1 2.503 4.265l.947 70.96c0 4.881-3.433 10.816-7.668 13.257L77.232 259.8a5 5 0 0 1-4.967-.015l-53.598-30.889C14.433 226.456 11 220.521 11 215.64l.002-70.127c0-1.766.93-3.4 2.45-4.301l54.6-32.382zm13.801.884 53.628 30.906a5 5 0 0 1 2.503 4.265l.946 70.96-.007.369c-.165 3.83-2.845 8.345-6.127 10.236l-55.564 31.582a5 5 0 0 1-4.967-.014l-53.598-30.889c-3.281-1.891-5.962-6.406-6.126-10.236l-.008-.369v-70.127a5 5 0 0 1 2.45-4.301l54.603-32.382.323-.178c3.405-1.773 8.663-1.713 11.944.178z" fill="url(#b)"/><path d="M137.986 144.885a5 5 0 0 0-2.503-4.265l-53.628-30.906c-3.282-1.891-8.539-1.951-11.944-.178l-.323.178-54.603 32.382a5 5 0 0 0-2.45 4.301v70.127l.008.369c.164 3.83 2.844 8.345 6.126 10.236l53.598 30.889a5 5 0 0 0 4.967.014l55.564-31.582c3.282-1.891 5.962-6.406 6.127-10.236l.007-.369-.946-70.96z" fill="#F9F9F9"/><path d="M76.04 225.08c-7.754 0-14.04-6.286-14.04-14.04S68.286 197 76.04 197s14.04 6.286 14.04 14.04-6.286 14.04-14.04 14.04zm1.276-22.336h-2.552v8.824l5.105 5.106 1.805-1.805-4.358-4.357v-7.768z" fill="#389D2D"/><path d="M139.113 213.972v-17.135" stroke="url(#c)"/><path d="M12.113 213.972v-17.135" stroke="url(#d)"/><path d="M12.164 154v46.645" stroke="url(#e)"/><path d="M11.98 201.277a6.98 6.98 0 1 0 0-13.96 6.98 6.98 0 0 0 0 13.96z" fill="#ACD4A7"/><path d="M11.98 198.486a4.188 4.188 0 1 0 0-8.376 4.188 4.188 0 0 0 0 8.376z" fill="#389D2D"/><path d="M139.164 154v46.645" stroke="url(#f)"/><path d="M138.98 201.277a6.98 6.98 0 1 0 0-13.96 6.98 6.98 0 0 0 0 13.96z" fill="#ACD4A7"/><path d="M138.981 198.486a4.188 4.188 0 1 0 0-8.376 4.188 4.188 0 0 0 0 8.376z" fill="#389D2D"/><path d="m72.595 117.138-47.83 27.615c-2.153 1.243-2.153 3.257 0 4.5l46.356 26.764c2.152 1.243 5.642 1.243 7.794 0l47.831-27.615c2.152-1.243 2.152-3.257 0-4.5l-46.357-26.764c-2.152-1.243-5.642-1.243-7.794 0z" stroke="#DDD"/><path d="M72.318 3.89 3.889 72.317a4.5 4.5 0 0 0 0 6.364l68.429 68.429a4.5 4.5 0 0 0 6.364 0l68.429-68.429a4.5 4.5 0 0 0 0-6.364L78.681 3.889a4.5 4.5 0 0 0-6.363 0z" fill="url(#g)" stroke="url(#h)"/><path d="M52.868 80.99c-.117 0-.208-.032-.272-.096a.404.404 0 0 1-.096-.272V70.174c0-.117.032-.208.096-.272a.339.339 0 0 1 .272-.112h4.384c.8 0 1.45.133 1.952.4.512.256.885.608 1.12 1.056.245.448.368.95.368 1.504 0 .437-.075.816-.224 1.136-.139.31-.315.565-.528.768a3.12 3.12 0 0 1-.624.448c.416.203.784.533 1.104.992.33.459.496 1.013.496 1.664a3.33 3.33 0 0 1-.4 1.616c-.267.49-.667.885-1.2 1.184-.523.288-1.173.432-1.952.432h-4.496zm1.2-1.296h3.088c.693 0 1.227-.187 1.6-.56a1.87 1.87 0 0 0 .56-1.376c0-.565-.187-1.03-.56-1.392-.373-.373-.907-.56-1.6-.56h-3.088v3.888zm0-5.168h2.944c.683 0 1.2-.155 1.552-.464.352-.32.528-.752.528-1.296s-.176-.96-.528-1.248c-.352-.288-.87-.432-1.552-.432h-2.944v3.44zm9.296 9.504a.37.37 0 0 1-.272-.112.346.346 0 0 1-.096-.256V73.038c0-.107.032-.192.096-.256a.37.37 0 0 1 .272-.112h.736a.32.32 0 0 1 .256.112.32.32 0 0 1 .112.256v.704a3.07 3.07 0 0 1 1.023-.88c.427-.235.96-.352 1.6-.352.598 0 1.105.101 1.52.304.427.203.774.48 1.04.832.278.352.486.752.624 1.2.14.448.214.928.224 1.44a8.793 8.793 0 0 1 0 1.088c-.01.501-.085.981-.224 1.44a3.677 3.677 0 0 1-.624 1.2 2.993 2.993 0 0 1-1.04.832c-.416.203-.922.304-1.52.304-.618 0-1.14-.112-1.567-.336a3.393 3.393 0 0 1-1.025-.864v3.712a.346.346 0 0 1-.096.256.339.339 0 0 1-.272.112h-.767zm3.392-4.176c.554 0 .986-.117 1.296-.352.32-.245.549-.56.688-.944.138-.395.218-.816.24-1.264.01-.31.01-.619 0-.928a4.255 4.255 0 0 0-.24-1.248 1.934 1.934 0 0 0-.688-.944c-.31-.245-.742-.368-1.297-.368-.522 0-.949.123-1.28.368-.32.245-.56.56-.72.944-.149.373-.234.757-.255 1.152-.011.17-.016.373-.016.608s.005.443.016.624c.01.373.096.741.255 1.104.171.363.422.661.752.896.331.235.747.352 1.248.352zm9.067 1.296c-1.099 0-1.974-.336-2.624-1.008-.65-.683-1.008-1.61-1.072-2.784a7.154 7.154 0 0 1-.016-.528c0-.224.005-.405.016-.544.042-.757.218-1.419.528-1.984.31-.576.73-1.019 1.264-1.328.544-.31 1.178-.464 1.904-.464.81 0 1.488.17 2.032.512.554.341.976.827 1.264 1.456.288.63.432 1.365.432 2.208v.272a.339.339 0 0 1-.112.272.346.346 0 0 1-.256.096h-5.536V77.47c.021.437.117.848.288 1.232.17.373.416.677.736.912s.704.352 1.152.352c.384 0 .704-.059.96-.176a2.61 2.61 0 0 0 .624-.384c.16-.15.266-.261.32-.336.096-.139.17-.219.224-.24a.518.518 0 0 1 .256-.048h.768c.106 0 .192.032.256.096.074.053.106.133.096.24-.01.16-.096.357-.256.592a3.18 3.18 0 0 1-.688.672c-.299.224-.662.41-1.088.56a4.76 4.76 0 0 1-1.472.208zm-2.176-4.928h4.384v-.048c0-.48-.09-.907-.272-1.28a2.022 2.022 0 0 0-.752-.88c-.33-.224-.726-.336-1.184-.336-.459 0-.854.112-1.184.336a2.06 2.06 0 0 0-.736.88c-.17.373-.256.8-.256 1.28v.048zm8.169 4.768a.346.346 0 0 1-.256-.096.346.346 0 0 1-.096-.256v-7.664c0-.085.032-.155.096-.208a.345.345 0 0 1 .224-.096h.816c.17 0 .304.085.4.256l2.72 5.088 2.736-5.088c.096-.17.23-.256.4-.256h.8c.085 0 .16.032.224.096a.258.258 0 0 1 .096.208v7.664a.346.346 0 0 1-.096.256.326.326 0 0 1-.24.096h-.784a.346.346 0 0 1-.256-.096.346.346 0 0 1-.096-.256v-6.384l.56.064-2.608 4.928a1.359 1.359 0 0 1-.192.288c-.075.085-.187.128-.336.128h-.416c-.139 0-.246-.043-.32-.128a1.995 1.995 0 0 1-.208-.288l-2.528-4.688.496-.048v6.128a.346.346 0 0 1-.096.256.346.346 0 0 1-.256.096h-.784zm15.738 0c-.117 0-.208-.032-.272-.096a.404.404 0 0 1-.096-.272v-2.608h-1.84v-.08c-1.003 0-1.75-.245-2.24-.736-.48-.501-.72-1.136-.72-1.904 0-.896.261-1.557.784-1.984.533-.427 1.333-.64 2.4-.64h2.752a.32.32 0 0 1 .256.112.32.32 0 0 1 .112.256v7.584a.37.37 0 0 1-.112.272.346.346 0 0 1-.256.096h-.768zm-5.072 0a.326.326 0 0 1-.24-.096.307.307 0 0 1-.096-.224c0-.043.005-.085.016-.128a.636.636 0 0 1 .096-.16l1.904-2.816 1.536.112-2.032 3.072a.872.872 0 0 1-.176.16.405.405 0 0 1-.24.08h-.768zm2.912-4.176h1.808V73.87h-1.68c-.597 0-1.04.107-1.328.32-.277.203-.416.57-.416 1.104 0 .437.128.8.384 1.088.267.288.677.432 1.232.432z" fill="#fff"/><path d="M72.98 13.435 12.498 73.917a4.5 4.5 0 0 0 0 6.364l59.157 59.157a4.5 4.5 0 0 0 6.364 0l60.482-60.482a4.5 4.5 0 0 0 0-6.364L79.344 13.435a4.5 4.5 0 0 0-6.364 0z" stroke="#A7A7A7" stroke-opacity=".3"/><defs><radialGradient id="c" cx="0" cy="0" r="1" gradientUnits="userSpaceOnUse"><stop stop-color="#389D2D" stop-opacity="0"/><stop offset="1" stop-color="#389D2D"/></radialGradient><radialGradient id="d" cx="0" cy="0" r="1" gradientUnits="userSpaceOnUse"><stop stop-color="#389D2D" stop-opacity="0"/><stop offset="1" stop-color="#389D2D"/></radialGradient><radialGradient id="e" cx="0" cy="0" r="1" gradientUnits="userSpaceOnUse"><stop stop-color="#389D2D" stop-opacity="0"/><stop offset="1" stop-color="#389D2D"/></radialGradient><radialGradient id="f" cx="0" cy="0" r="1" gradientUnits="userSpaceOnUse"><stop stop-color="#389D2D" stop-opacity="0"/><stop offset="1" stop-color="#389D2D"/></radialGradient><linearGradient id="a" x1="76.5" y1="303.207" x2="76.5" y2="275" gradientUnits="userSpaceOnUse"><stop stop-color="#4C4C4C"/><stop offset="1" stop-color="#878787"/></linearGradient><linearGradient id="b" x1="2.351" y1="184.405" x2="172.336" y2="184.405" gradientUnits="userSpaceOnUse"><stop stop-color="#737373" stop-opacity=".11"/><stop offset="1" stop-color="#D9D9D9" stop-opacity=".2"/></linearGradient><linearGradient id="g" x1="37.957" y1="38.25" x2="113.457" y2="113.75" gradientUnits="userSpaceOnUse"><stop/><stop offset="1" stop-color="#666"/></linearGradient><linearGradient id="h" x1="37.957" y1="38.25" x2="113.457" y2="113.75" gradientUnits="userSpaceOnUse"><stop/><stop offset="1" stop-color="#666"/></linearGradient></defs></svg>
